X:1
T:Title
%%score { ( 1 3 ) | ( 2 4 ) }
L:1/8
M:6/8
K:C
V:1 treble nm="Grand Piano"
V:3 treble 
V:2 bass 
V:4 bass 
V:1
 z3 z2[Q:1/4=78] G | [Ec][Ec]c [Fc][FB][FA] | [FA][EG][_E^F] [=EG][=FA][EG] | GFE FGF | %4
 E3- EE[EG] | [Ec][Ec][Ec] [Fd][Fc][FA] | [FA][EG][_E^F] [=EG][EG][EA] | BBB [^Fc][FB][Fc] | %8
[M:5/8] d- d3 z |[M:1/8] G |[M:3/4] [Ge][Ge] [Ge][Ad] [CAc][CFA] | c4 z2 | AA AG [FB][Ec] | %13
[M:5/8] d- d3 z |[M:1/8] G |[M:3/4] [Ec][Ec] [Ec][_Be] [Bd][Be] | [Af]3 A z A | AG cc AB | %18
[M:5/8] c-c- c3 |] %19
V:2
 z3 z2 G, | [C,G,][C,G,][G,E] [C,A,][C,A,][C,B,] | [C,C][C,C][C,C] [C,C][C,C][C,C] | %3
 [G,B,E][G,B,D][G,A,^C] [G,B,D][G,B,E][G,D] | [C,G,C]3- [C,G,C][C,G,C][C,G,] | %5
 [C,G,][C,G,][C,G,] [C,A,][C,A,][C,B,] | [C,C][C,C][C,C] [C,C][C,G,][C,G,] | %7
 [D,G,D][D,G,D][D,G,D] [D,A,][D,A,][D,A,] |[M:5/8][K:treble] [G,B,G]- [G,B,G]3 z | %9
[M:1/8][K:bass] G, |[M:3/4] [C,C][C,C] [C,C][F,C] F,F, | z2 A,[C,C] z [C,C] | %12
 [F,CF][F,CF] [F,CF][E,C] [D,G,][C,G,] |[M:5/8][K:treble] [G,B,G]- [G,B,G]3 z |[M:1/8][K:bass] G, | %15
[M:3/4] [C,G,][C,G,] [C,G,][C,C] [C,C][C,C] | [F,C]3[K:treble] [F,CF] z [F,CF] | %17
 [G,CE][G,CE] [G,CE][G,DF] [G,DF][G,DF] |[M:5/8][K:bass] z2 A, G,2 |] %19
V:3
 x6 | x6 | x6 | x6 | x6 | x6 | x6 | x6 |[M:5/8] x5 |[M:1/8] x |[M:3/4] x6 | [CE]2 F[EG] z [EG] | %12
 x6 |[M:5/8] x5 |[M:1/8] x |[M:3/4] x6 | x6 | x6 |[M:5/8] [CE]2 F E2 |] %19
V:4
 x6 | x6 | x6 | x6 | x6 | x6 | x6 | x6 |[M:5/8][K:treble] x5 |[M:1/8][K:bass] x |[M:3/4] x6 | %11
 C,4 z2 | x6 |[M:5/8][K:treble] x5 |[M:1/8][K:bass] x |[M:3/4] x6 | x3[K:treble] x3 | x6 | %18
[M:5/8][K:bass] C,-C,- C,3 |] %19

